SmartNotes/img/footer-icons/email.svg

<svg width="32" height="32" fill="none" xmlns="http://www.w3.org/2000/svg"><path d="M31.978 6.892a.985.985 0 00-.04-.2C31.782 5.74 30.994 5 30 5H2C1.006 5 .218 5.74.062 6.692a.985.985 0 00-.04.2C.02 6.93 0 6.962 0 7v18c0 .038.02.072.022.11a.966.966 0 00.04.198C.216 26.258 1.006 27 2 27h28c.994 0 1.784-.742 1.938-1.694a.966.966 0 00.04-.198c.002-.036.022-.07.022-.108V7c0-.038-.02-.07-.022-.108zM29.308 7l-11.1 8.14L16 16.76l-2.206-1.618s-.002 0-.002-.002L2.692 7h26.616zM2 8.974l9.584 7.028L2 23.028V8.974zM2.692 25l10.584-7.758 2.132 1.564a.994.994 0 001.184 0l2.132-1.564L29.308 25H2.692zM30 23.028l-9.584-7.026L30 8.974v14.054z" fill="#BCBFBF"/></svg>

<svg width="32px" height="32px" viewBox="0 0 32 32" fill="none" xmlns="http://www.w3.org/2000/svg">
<path d="M31.978 6.892C31.97 6.824 31.96 6.758 31.938 6.692C31.782 5.74 30.994 5 30 5H2C1.006 5 0.218 5.74 0.062 6.692C0.04 6.758 0.03 6.824 0.022 6.892C0.02 6.93 0 6.962 0 7V25C0 25.038 0.02 25.072 0.022 25.11C0.03 25.178 0.04 25.242 0.062 25.308C0.216 26.258 1.006 27 2 27H30C30.994 27 31.784 26.258 31.938 25.306C31.96 25.24 31.97 25.176 31.978 25.108C31.98 25.072 32 25.038 32 25V7C32 6.962 31.98 6.93 31.978 6.892ZM29.308 7L18.208 15.14L16 16.76L13.794 15.142C13.794 15.142 13.792 15.142 13.792 15.14L2.692 7H29.308ZM2 8.974L11.584 16.002L2 23.028V8.974ZM2.692 25L13.276 17.242L15.408 18.806C15.584 18.936 15.792 19 16 19C16.208 19 16.416 18.936 16.592 18.806L18.724 17.242L29.308 25H2.692ZM30 23.028L20.416 16.002L30 8.974V23.028Z" fill="#BCBFBF"/>
</svg>
